X:1
T:The Brink of the White Rocks [2]
M:6/8
L:1/8
Q:"Andante con espress."
B:Roche - Collection of Traditional Irish Music, vol. 1 (1912, No. 8)
Z:AK/Fiddler's Companion
K:Amin
(A/B/c/d/)|(e>fe/d/) (c2 (g/e/))|(d>cA) (G2(e/d/))|(cBA) (GE)G|(A3 A2) (c/d/)|
(e>fe/d/) (c2 g/e/)|(dcA) (G2e/d/)|(c>BA) (GEG)|A3 A2||
c|(cBA) (cde)|(g2 a/g/) (e2d)|(cBA) (cde)|!fermata!a3 (g2e)|
(.f.f.f) (e<ge)|(dcA) (G2e/d/)|(cBA) (GEG)|A3 A2||

